src/assets/icons/component.svg

<svg width="34" height="24" viewBox="0 0 34 24" fill="none" xmlns="http://www.w3.org/2000/svg">
<rect x="0.5" y="0.5" width="33" height="23" rx="2.5" fill="#F6F6F9" stroke="#DCDCE4"/>
<path fill-rule="evenodd" clip-rule="evenodd" d="M14.0351 8.76754C14.0351 8.88358 14.0239 8.997 14.0026 9.10679L17.016 10.8825L20.0008 9.1237C19.9773 9.00866 19.9649 8.88954 19.9649 8.76754C19.9649 7.79136 20.7563 7 21.7325 7C22.7086 7 23.5 7.79136 23.5 8.76754C23.5 9.74373 22.7086 10.5351 21.7325 10.5351C21.2629 10.5351 20.836 10.352 20.5195 10.0532L17.5383 11.8099V14.287C18.2216 14.5313 18.7105 15.1844 18.7105 15.9518C18.7105 16.9279 17.9192 17.7193 16.943 17.7193C15.9668 17.7193 15.1754 16.9279 15.1754 15.9518C15.1754 15.1321 15.7334 14.4427 16.4902 14.2427V11.8078L13.4928 10.0415C13.175 10.3472 12.7432 10.5351 12.2675 10.5351C11.2914 10.5351 10.5 9.74373 10.5 8.76754C10.5 7.79136 11.2914 7 12.2675 7C13.2437 7 14.0351 7.79136 14.0351 8.76754Z" fill="#4A4A6A"/>
<path d="M14.0026 9.10679L13.9535 9.09725L13.9467 9.13193L13.9772 9.14987L14.0026 9.10679ZM17.016 10.8825L16.9907 10.9255L17.016 10.9405L17.0414 10.9255L17.016 10.8825ZM20.0008 9.1237L20.0262 9.16678L20.057 9.14866L20.0498 9.11368L20.0008 9.1237ZM20.5195 10.0532L20.5538 10.0168L20.5265 9.99105L20.4941 10.0101L20.5195 10.0532ZM17.5383 11.8099L17.5129 11.7668L17.4883 11.7813V11.8099H17.5383ZM17.5383 14.287H17.4883V14.3222L17.5215 14.334L17.5383 14.287ZM16.4902 14.2427L16.503 14.2911L16.5402 14.2812V14.2427H16.4902ZM16.4902 11.8078H16.5402V11.7792L16.5156 11.7647L16.4902 11.8078ZM13.4928 10.0415L13.5182 9.99845L13.4855 9.97919L13.4581 10.0055L13.4928 10.0415ZM14.0516 9.11633C14.0736 9.00341 14.0851 8.8868 14.0851 8.76754H13.9851C13.9851 8.88036 13.9742 8.99059 13.9535 9.09725L14.0516 9.11633ZM17.0414 10.8394L14.0279 9.06371L13.9772 9.14987L16.9907 10.9255L17.0414 10.8394ZM19.9754 9.08062L16.9907 10.8394L17.0414 10.9255L20.0262 9.16678L19.9754 9.08062ZM19.9149 8.76754C19.9149 8.89293 19.9276 9.0154 19.9518 9.13372L20.0498 9.11368C20.0269 9.00192 20.0149 8.88616 20.0149 8.76754H19.9149ZM21.7325 6.95C20.7287 6.95 19.9149 7.76374 19.9149 8.76754H20.0149C20.0149 7.81897 20.7839 7.05 21.7325 7.05V6.95ZM23.55 8.76754C23.55 7.76374 22.7363 6.95 21.7325 6.95V7.05C22.681 7.05 23.45 7.81897 23.45 8.76754H23.55ZM21.7325 10.5851C22.7363 10.5851 23.55 9.77135 23.55 8.76754H23.45C23.45 9.71612 22.681 10.4851 21.7325 10.4851V10.5851ZM20.4852 10.0896C20.8106 10.3967 21.2496 10.5851 21.7325 10.5851V10.4851C21.2761 10.4851 20.8614 10.3072 20.5538 10.0168L20.4852 10.0896ZM17.5637 11.8529L20.5449 10.0963L20.4941 10.0101L17.5129 11.7668L17.5637 11.8529ZM17.5883 14.287V11.8099H17.4883V14.287H17.5883ZM17.5215 14.334C18.1855 14.5715 18.6605 15.2062 18.6605 15.9518H18.7605C18.7605 15.1627 18.2577 14.4911 17.5551 14.2399L17.5215 14.334ZM18.6605 15.9518C18.6605 16.9003 17.8916 17.6693 16.943 17.6693V17.7693C17.9468 17.7693 18.7605 16.9556 18.7605 15.9518H18.6605ZM16.943 17.6693C15.9944 17.6693 15.2254 16.9003 15.2254 15.9518H15.1254C15.1254 16.9556 15.9392 17.7693 16.943 17.7693V17.6693ZM15.2254 15.9518C15.2254 15.1553 15.7676 14.4854 16.503 14.2911L16.4775 14.1944C15.6992 14.4 15.1254 15.1088 15.1254 15.9518H15.2254ZM16.4402 11.8078V14.2427H16.5402V11.8078H16.4402ZM13.4674 10.0846L16.4649 11.8508L16.5156 11.7647L13.5182 9.99845L13.4674 10.0846ZM12.2675 10.5851C12.7567 10.5851 13.2008 10.3918 13.5274 10.0776L13.4581 10.0055C13.1493 10.3025 12.7298 10.4851 12.2675 10.4851V10.5851ZM10.45 8.76754C10.45 9.77135 11.2637 10.5851 12.2675 10.5851V10.4851C11.319 10.4851 10.55 9.71612 10.55 8.76754H10.45ZM12.2675 6.95C11.2637 6.95 10.45 7.76374 10.45 8.76754H10.55C10.55 7.81897 11.319 7.05 12.2675 7.05V6.95ZM14.0851 8.76754C14.0851 7.76374 13.2713 6.95 12.2675 6.95V7.05C13.2161 7.05 13.9851 7.81897 13.9851 8.76754H14.0851Z" fill="#4A4A6A"/>
</svg>

<svg width="34" height="24" fill="none" xmlns="http://www.w3.org/2000/svg"><rect x=".5" y=".5" width="33" height="23" rx="2.5" fill="#F6F6F9" stroke="#DCDCE4"/><path fill-rule="evenodd" clip-rule="evenodd" d="M14.035 8.768c0 .116-.011.229-.032.339l3.013 1.776 2.985-1.76a1.768 1.768 0 11.519.93l-2.982 1.757v2.477a1.768 1.768 0 11-1.048-.044v-2.435l-2.997-1.767a1.768 1.768 0 11.542-1.274z" fill="#4A4A6A"/><path d="M14.003 9.107l-.05-.01-.006.035.03.018.026-.043zm3.013 1.776l-.025.043.025.014.025-.014-.025-.043zm2.985-1.76l.025.044.031-.018-.007-.035-.05.01zm.518.93l.035-.036-.027-.026-.033.02.026.042zm-2.98 1.757l-.026-.043-.025.014v.029h.05zm0 2.477h-.05v.035l.032.012.017-.047zm-1.049-.044l.013.048.037-.01v-.038h-.05zm0-2.435h.05v-.029l-.024-.014-.026.043zm-2.997-1.767l.025-.043-.033-.019-.027.027.035.035zm.559-.925c.022-.113.033-.23.033-.348h-.1c0 .112-.01.223-.031.33l.098.018zm2.99 1.723l-3.014-1.775-.05.086 3.013 1.775.05-.086zm2.933-1.758l-2.984 1.758.05.086 2.985-1.758-.05-.086zm-.06-.313c0 .125.013.247.037.366l.098-.02a1.723 1.723 0 01-.035-.346h-.1zm1.818-1.818a1.818 1.818 0 00-1.818 1.818h.1c0-.949.769-1.718 1.718-1.718v-.1zm1.817 1.818a1.818 1.818 0 00-1.817-1.818v.1c.948 0 1.717.769 1.717 1.718h.1zm-1.817 1.817a1.818 1.818 0 001.817-1.817h-.1c0 .948-.769 1.717-1.717 1.717v.1zm-1.248-.495c.326.307.765.495 1.248.495v-.1c-.457 0-.872-.178-1.18-.468l-.068.073zm-2.921 1.763l2.98-1.757-.05-.086-2.981 1.757.05.086zm.024 2.434V11.81h-.1v2.477h.1zm-.067.047a1.718 1.718 0 011.14 1.618h.1c0-.79-.503-1.46-1.206-1.712l-.034.094zm1.14 1.618c0 .948-.77 1.717-1.718 1.717v.1a1.817 1.817 0 001.817-1.817h-.1zm-1.718 1.717a1.718 1.718 0 01-1.718-1.717h-.1c0 1.004.814 1.817 1.818 1.817v-.1zm-1.718-1.717c0-.797.543-1.467 1.278-1.66l-.026-.098a1.818 1.818 0 00-1.352 1.758h.1zm1.215-4.144v2.435h.1v-2.435h-.1zm-2.973-1.723l2.998 1.766.05-.086-2.997-1.767-.05.087zm-1.2.5c.49 0 .934-.193 1.26-.507l-.069-.072c-.309.296-.728.48-1.19.48v.1zM10.45 8.768c0 1.003.814 1.817 1.818 1.817v-.1a1.718 1.718 0 01-1.718-1.717h-.1zm1.818-1.818a1.818 1.818 0 00-1.818 1.818h.1c0-.949.769-1.718 1.717-1.718v-.1zm1.817 1.818a1.818 1.818 0 00-1.818-1.818v.1c.95 0 1.718.769 1.718 1.718h.1z" fill="#4A4A6A"/></svg>
